X: 28885
T: Mystery Inch, The
R: jig
M: 6/8
K: Gmajor
B2g fdB|de2 dBA|GAB dBG|ABG BFG-|
G2g fdB|de2 dBA|GAB dgf|1 efd BAF:|2 efd BAG||
EGB AGD|BAG EGB|ABd ~d3|edA BGE|
CGB AGE|DGB AGE|FGd faf|dBd eBA|
GED CBA|GED BAG|FGA ~d3|edA BGE|
CGB AGE|EGB AGE|FGd faf|dBd edA||

